public/img/quote-blue.svg

<svg width="32" height="33" viewBox="0 0 32 33" fill="none" xmlns="http://www.w3.org/2000/svg">
<path d="M24.0004 24.8281C24.5308 24.8281 25.0395 24.6174 25.4146 24.2423C25.7896 23.8673 26.0004 23.3586 26.0004 22.8281V17.9441C26.0004 17.4137 25.7896 16.905 25.4146 16.5299C25.0395 16.1548 24.5308 15.9441 24.0004 15.9441H21.2244C21.2244 15.2415 21.2657 14.5388 21.3484 13.8361C21.4724 13.0921 21.679 12.4308 21.9684 11.8521C22.2577 11.2735 22.6304 10.8181 23.0864 10.4861C23.5397 10.1141 24.1184 9.92813 24.8224 9.92813V6.82812C23.665 6.82812 22.6517 7.07612 21.7824 7.57212C20.919 8.06187 20.1773 8.74003 19.6124 9.55612C19.0436 10.4544 18.6248 11.4393 18.3724 12.4721C18.1171 13.6116 17.9923 14.7764 18.0004 15.9441V22.8281C18.0004 23.3586 18.2111 23.8673 18.5862 24.2423C18.9612 24.6174 19.4699 24.8281 20.0004 24.8281H24.0004ZM12.0004 24.8281C12.5308 24.8281 13.0395 24.6174 13.4146 24.2423C13.7897 23.8673 14.0004 23.3586 14.0004 22.8281V17.9441C14.0004 17.4137 13.7897 16.905 13.4146 16.5299C13.0395 16.1548 12.5308 15.9441 12.0004 15.9441H9.22436C9.22436 15.2415 9.2657 14.5388 9.34836 13.8361C9.4737 13.0921 9.68037 12.4308 9.96836 11.8521C10.2577 11.2735 10.6304 10.8181 11.0864 10.4861C11.5397 10.1141 12.1184 9.92813 12.8224 9.92813V6.82812C11.665 6.82812 10.6517 7.07612 9.78236 7.57212C8.91905 8.06187 8.17731 8.74003 7.61236 9.55612C7.04359 10.4544 6.62478 11.4393 6.37236 12.4721C6.11713 13.6116 5.99233 14.7764 6.00036 15.9441V22.8281C6.00036 23.3586 6.21108 23.8673 6.58615 24.2423C6.96122 24.6174 7.46993 24.8281 8.00036 24.8281H12.0004Z" fill="#0AB7A8"/>
</svg>

<svg xmlns="http://www.w3.org/2000/svg" width="32" height="33" fill="none" viewBox="0 0 32 33"><path fill="#0ab7a8" d="M24 24.828a2 2 0 0 0 2-2v-4.884a2 2 0 0 0-2-2h-2.776q0-1.054.124-2.108a7 7 0 0 1 .62-1.984q.434-.868 1.118-1.366.68-.558 1.736-.558v-3.1q-1.735 0-3.04.744a6.6 6.6 0 0 0-2.17 1.984 9.8 9.8 0 0 0-1.24 2.916A15.4 15.4 0 0 0 18 15.944v6.884a2 2 0 0 0 2 2zm-12 0a2 2 0 0 0 2-2v-4.884a2 2 0 0 0-2-2H9.224q0-1.054.124-2.108a7 7 0 0 1 .62-1.984q.434-.868 1.118-1.366.68-.558 1.736-.558v-3.1q-1.735 0-3.04.744a6.6 6.6 0 0 0-2.17 1.984 9.8 9.8 0 0 0-1.24 2.916A15.4 15.4 0 0 0 6 15.944v6.884a2 2 0 0 0 2 2z"/></svg>
